X: 14
T: Missa Cuiusvis toni (on D) / Gloria
N: Derived from Ock1004.1b-Missa_Cuiusvis_toni-Gloria-on_D.krn
C: Johannes Ockeghem
%%abc-version 2.0
%%abcx-abcm2ps-target-version 5.9.1 (29 Sep 2008)
%%abc-creator hum2abc beta
%%abcx-conversion-date 2019/02/17 07:26:13
%%abc-edited-by Jesse Rodin
%%abc-edited-by Jesse Rodin 8-19-2012
%%abcx-initial-encoding-date 2012/08/19/
%%humdrum-veritas 3383891410
%%humdrum-veritas-data 1855572754
%%linebreak <none>
%%barnumbers 0
L: 1/4
M: 3/1
Q: 1/2=120
%%staves [1 2 3 4]
V: 1 clef=treble
V: 2 clef=treble-8
V: 3 clef=treble-8
V: 4 clef=bass
K: F
[V:1] D4F2G2A4 | 
[V:2] d3BA2B2A2d2- | 
[V:3] z12 | 
[V:4] z12 | 
[V:1] A2A4B2A2B2- | 
[V:2] d2d2d4c2d2- | 
[V:3] z12 | 
[V:4] z12 | 
[V:1] BAA4G2A2A2 | 
[V:2] dcA2B4A4 | 
[V:3] z4z4F4- | 
[V:4] z12 | 
[V:1] A2c3BB3AG2 | 
[V:2] c3de4d4 | 
[V:3] F4E3FG4 | 
[V:4] z12 | 
[V:1] F2G4F4E2 | 
[V:2] c2d4c2BB2A | 
[V:3] A2B3AF2G4 | 
[V:4] z12 | 
[V:1] F2F2G2B2A2A2 | 
[V:2] c2d2e4c2d2 | 
[V:3] F2A2B2G2F4- | 
[V:4] F,4E,4F,2D,2- | 
[V:1] A2F2G2B3AF2 | 
[V:2] A2d2c2B2d3c | 
[V:3] F4z2G2F2A2- | 
[V:4] D,2F,2E,4D,4 | 
[V:1] A2A2F2A3GE2 | 
[V:2] A4B2A3Bc2 | 
[V:3] A2F2F4z2G2 | 
[V:4] z2D,8C,2 | 
[V:1] D2G2F2G2FDE2 | 
[V:2] A2B2c2d4c2 | 
[V:3] F2G2A2B4G2 | 
[V:4] D,2C,B,,A,,2G,,2B,,2C,2 | 
[V:1] D2EF2DD4^C2 | 
[V:2] A2B3AA4G2 | 
[V:3] F2GFD2F2E4 | 
[V:4] D,2G,,2D,4z4 | 
[V:1] D2D2F2F2G2G2 | 
[V:2] A6d2B2c2- | 
[V:3] D4z4z4 | 
[V:4] z2D,2D,2D,2E,2E,2 | 
[V:1] A2A2B2B2AB2A | 
[V:2] c2c2B2G2F4 | 
[V:3] z4d4d3c | 
[V:4] F,2F,2G,4D,4 | 
[V:1] F2B2A2d3cA2 | 
[V:2] z2f2e2d2f4- | 
[V:3] A2z2A2B3AF2- | 
[V:4] D,4C,2B,,2D,4- | 
[V:1] B3c2AA4G2 | 
[V:2] f2e2c4d4 | 
[V:3] F2G2A2c2B4 | 
[V:4] D,2E,2F,4z2B,,2 | 
[V:1] A2B4G2F4 | 
[V:2] z2d2d2d4d2 | 
[V:3] A2G2B4A4 | 
[V:4] C,2B,,2G,,4D,4 | 
[V:1] z2B2B2B3AA2 | 
[V:2] d12 | 
[V:3] G8D4 | 
[V:4] z12 | 
[V:1] GFD2_E2DB,2DC2 | 
[V:2] B4c2FGBB2A | 
[V:3] z12 | 
[V:4] z12 | 
[V:1] B,4z4z4 | 
[V:2] B4z2c2d2d2 | 
[V:3] z2F2G2G2F2D2 | 
[V:4] z2B,,2_E,2E,2D,2B,,2 | 
[V:1] z4D2D2F2F2 | 
[V:2] c2A2B2B2A4 | 
[V:3] E2F2G4F4 | 
[V:4] C,2D,2G,,4D,4 | 
[V:1] G2G2E2F4G2 | 
[V:2] G4B2A2d4 | 
[V:3] z2B2G2A2B2G2 | 
[V:4] E,4z2D,4B,,2 | 
[V:1] A3B3A3G3 | 
[V:2] c3de2f3d3 | 
[V:3] F3G3A3B3 | 
[V:4] A,,3G,,3F,,3G,,3 | 
[V:1] F4z4B4 | 
[V:2] d4c4B4 | 
[V:3] A2D2E2F2G4- | 
[V:4] D,2B,,2A,,4G,,4 | 
[V:1] B2B4B2A2F2 | 
[V:2] d4_e2d4B2 | 
[V:3] G8F2D2 | 
[V:4] z12 | 
[V:1] G2F2D4E2D2 | 
[V:2] c2d4B2c2B2 | 
[V:3] E2D4G3CG2 | 
[V:4] z12 | 
[V:1] C2D4B,2A,4 | 
[V:2] z2G2B3cd4 | 
[V:3] A2B4G2F3G | 
[V:4] z4z4D,3B,, | 
[V:1] z4D4E4 | 
[V:2] c2A2B4z4 | 
[V:3] A4F2G4E2 | 
[V:4] A,,2D,4B,,2C,4 | 
[V:1] F2EFG4F2D2 | 
[V:2] A4B3cd4 | 
[V:3] D4G4z2G2- | 
[V:4] z2D,2G,,3A,,B,,4 | 
[V:1] E3FG4F2E2- | 
[V:2] z2c2d4c2B2 | 
[V:3] G2A2B4A2G2 | 
[V:4] C,2A,,2G,,4z2G,,2 | 
[V:1] EDD4B,2A,2D2 | 
[V:2] A2B4G2F2G2 | 
[V:3] E2F2G2E2F2B2 | 
[V:4] C,2B,,2G,,4D,2B,,2 | 
[V:1] C2E3DD4^C2 | 
[V:2] A2c2B2G3FG2 | 
[V:3] A2G3FD2E4 | 
[V:4] C,3B,,G,,4z4 | 
[V:1] D12 ||  
[V:2] A12 ||  
[V:3] D12 ||  
[V:4] D,12 ||  
[V:1]  [K:F] [K:clef=treble][M:2/1]F8 | 
[V:2]  [K:F] [K:clef=treble-8][M:2/1]d8 | 
[V:3]  [K:F] [K:clef=treble-8][M:2/1]D8 | 
[V:4]  [K:F] [K:clef=bass][M:2/1]z8 | 
[V:1] F4F4 | 
[V:2] d4d4 | 
[V:3] D4D4 | 
[V:4] z8 | 
[V:1] G4A4 | 
[V:2] c4c4 | 
[V:3] E4F4 | 
[V:4] z8 | 
[V:1] B4G4 | 
[V:2] B4B4 | 
[V:3] G4G4 | 
[V:4] z8 | 
[V:1] F4F4 | 
[V:2] A4A4 | 
[V:3] D4D4 | 
[V:4] z8 | 
[V:1] G4F4 | 
[V:2] c4d4 | 
[V:3] E4D4 | 
[V:4] z8 | 
[V:1] G4E4 | 
[V:2] B4c4 | 
[V:3] E4C4 | 
[V:4] z8 | 
[V:1] F4F4 | 
[V:2] A4A4 | 
[V:3] D4D4 | 
[V:4] z4D,4 | 
[V:1] B4B4 | 
[V:2] G4G4 | 
[V:3] D4D4 | 
[V:4] G,,4G,,4 | 
[V:1] A4F4 | 
[V:2] F4F4 | 
[V:3] C4C4 | 
[V:4] A,,4A,,4 | 
[V:1] G4G4 | 
[V:2] B4B4 | 
[V:3] D4E4 | 
[V:4] G,,4G,,4 | 
[V:1] F4z4 | 
[V:2] A4z4 | 
[V:3] F4G4 | 
[V:4] D,4z4 | 
[V:1] F6F2 | 
[V:2] d6d2 | 
[V:3] A6A2 | 
[V:4] D,6D,2 | 
[V:1] F4F4 | 
[V:2] d4d4 | 
[V:3] A4A4 | 
[V:4] D,4D,4 | 
[V:1] D4E4 | 
[V:2] B4c4 | 
[V:3] F4G2E2 | 
[V:4] D,4C,4 | 
[V:1] F4E2G2- | 
[V:2] d4c4 | 
[V:3] D4E3C | 
[V:4] B,,4C,4 | 
[V:1] GFE2D2E2- | 
[V:2] B4A2B2- | 
[V:3] D2E2F2G2- | 
[V:4] G,,4z4 | 
[V:1] E2D4^C2 | 
[V:2] B2A4G2 | 
[V:3] GFD2E4 | 
[V:4] z8 | 
[V:1] D4z4 | 
[V:2] A4B4 | 
[V:3] D8 | 
[V:4] z8 | 
[V:1] D4E4 | 
[V:2] A2d4c2 | 
[V:3] z8 | 
[V:4] z8 | 
[V:1] D2G4^F2 | 
[V:2] B2G2A4 | 
[V:3] z8 | 
[V:4] z8 | 
[V:1] G4z2F2 | 
[V:2] G2B4A2 | 
[V:3] z8 | 
[V:4] z4D,4 | 
[V:1] F2F2F4 | 
[V:2] B3cA4 | 
[V:3] z8 | 
[V:4] D,6D,2 | 
[V:1] G4F2D2 | 
[V:2] G4z2F2 | 
[V:3] z8 | 
[V:4] E,4D,4 | 
[V:1] _E2C2B,4 | 
[V:2] G2A2B2G2- | 
[V:3] z4D4 | 
[V:4] C,3B,,G,,4- | 
[V:1] B,4A,4 | 
[V:2] G2E2F4 | 
[V:3] B,2C2D4- | 
[V:4] G,,4z4 | 
[V:1] G,2B,2C2D2- | 
[V:2] B4A2G2 | 
[V:3] D2_E4D2 | 
[V:4] G,,4C,2B,,2- | 
[V:1] D2B,2A,4 | 
[V:2] B3cd4 | 
[V:3] G4F4 | 
[V:4] B,,2G,,2D,4 | 
[V:1] z4F4- | 
[V:2] z4d4- | 
[V:3] z4A4- | 
[V:4] z4D,4- | 
[V:1] F2F2F4 | 
[V:2] d2d2d4 | 
[V:3] A2A2A4 | 
[V:4] D,2D,2D,4 | 
[V:1] F4D4 | 
[V:2] d3cA3B | 
[V:3] A4F4 | 
[V:4] D,4D,4 | 
[V:1] E2G2F2G2- | 
[V:2] c4z2d2- | 
[V:3] G4A2B2- | 
[V:4] C,4A,,2G,,2 | 
[V:1] G2E2D4 | 
[V:2] d2c2A4 | 
[V:3] B2G4F2 | 
[V:4] B,,2C,2D,4 | 
[V:1] z2G2G2G2 | 
[V:2] B4c4 | 
[V:3] G4E4 | 
[V:4] G,,4z2C,2 | 
[V:1] F2G4E2 | 
[V:2] z2c4A2 | 
[V:3] D2C2E4 | 
[V:4] D,2E,2C,4 | 
[V:1] D2z2D2F2- | 
[V:2] B4A2B2 | 
[V:3] F4z2D2 | 
[V:4] B,,2D,4B,,2 | 
[V:1] FGA2B3A | 
[V:2] c4B3c | 
[V:3] F4G4 | 
[V:4] A,,4G,,4 | 
[V:1] B2A4G2- | 
[V:2] d8 | 
[V:3] D4G2B2 | 
[V:4] z8 | 
[V:1] G2F2G4 | 
[V:2] c4d4- | 
[V:3] A4G4 | 
[V:4] z4G,4 | 
[V:1] F2G2A2B2- | 
[V:2] d2B2A2G2 | 
[V:3] A2G2z2G2 | 
[V:4] D,2E,2F,2G,2- | 
[V:1] B2G2F4 | 
[V:2] B2c2d4- | 
[V:3] G4A4- | 
[V:4] G,2E,2D,4- | 
[V:1] z4F4 | 
[V:2] d4d4 | 
[V:3] A4A4 | 
[V:4] D,4D,4 | 
[V:1] F8 | 
[V:2] d8 | 
[V:3] A8 | 
[V:4] D,8 | 
[V:1] G4A4- | 
[V:2] c4z2d2- | 
[V:3] G4F2F2- | 
[V:4] E,4D,4- | 
[V:1] A2G2G4 | 
[V:2] d2B2B4 | 
[V:3] F2EFG4 | 
[V:4] D,2G,,2G,,4 | 
[V:1] G4G4- | 
[V:2] G4d4- | 
[V:3] B4B4- | 
[V:4] G,4G,4- | 
[V:1] G2G2G4 | 
[V:2] d2d2d4 | 
[V:3] B2B2B4 | 
[V:4] G,2G,2G,4 | 
[V:1] F4G4 | 
[V:2] d4B2c2 | 
[V:3] A4G4 | 
[V:4] D,4_E,4 | 
[V:1] F2D2E4 | 
[V:2] d2B3GA2 | 
[V:3] z2F3DE2 | 
[V:4] B,,4C,4 | 
[V:1] D3CD2B,2 | 
[V:2] B4A2G2 | 
[V:3] F6D2 | 
[V:4] B,,3A,,F,,2G,,2- | 
[V:1] A,4G,2B,2 | 
[V:2] c4B4 | 
[V:3] E2F2D4 | 
[V:4] G,,2F,,2G,,4 | 
[V:1] C2D3EF2- | 
[V:2] z2B4A2 | 
[V:3] C2B,2D3E | 
[V:4] A,,2B,,3C,D,2- | 
[V:1] FDE2DD2B, | 
[V:2] B2c2AB2G | 
[V:3] F2G2F2D2- | 
[V:4] D,2C,2D,2G,,2 | 
[V:1] A,2D4^C2 | 
[V:2] F2A4G2 | 
[V:3] D2F2E4 | 
[V:4] D,4E,4 | 
[V:1] D8- | 
[V:2] A8- | 
[V:3] D8- | 
[V:4] z2F,4D,2 | 
[V:1] D8 |]  
[V:2] A8 |]  
[V:3] D8 |]  
[V:4] D,8 |]  



